!!!OTL: DER LANDSTURM
!!!ARE: Europa, Mitteleuropa, Deutschland
!!!SCT: B0582
!!!YEM: Copyright 1995, estate of Helmut Schaffrath.
**kern
*ICvox
*Ivox
*M4/4
*k[f#c#]
*D:
{4a
=1
2dd
4a
4a
=2
2dd
4a}
{4a
=3
4b
4a
4.g
8a
=4
4f#
4e
4d}
{8g
8f#
=5
8e
8f#
8g
8a
4.b
8a
=6
8g
8a
8b
8cc#
4.dd}
{8dd
=7
4cc#
4b
4.ee
8dd
=8
4cc#
4b
4a}
{4a
=9
4b
8g
8e
4a
8f#
8d
=10
8e
8f#
8g
8a
4f#}
{4a
=11
4b
4cc#
4dd
4b
=12
2a
2a
=13
2d
4r}
{4a
=14
2dd
4d
4a
=15
2dd
4d}
==
!!!AGN: Staende -, Soldaten - Lied
!!!ONB: ESAC (Essen Associative Code) Database: BOEHME
!!!AMT: simple quadruple
!!!AIN: vox
!!!EED: Helmut Schaffrath
!!!EEV: 1.0
*-
